X:1
T:La Campanella
T:La Campanella
T:Franz Liszt (1811-1886) 
C:Franz Liszt
%%score { ( 1 3 ) | ( 2 4 ) }
L:1/8
Q:1/8=180
M:6/8
K:B
V:1 treble nm="Piano" snm="Pno."
V:3 treble 
V:2 treble 
V:4 treble 
V:1
!8va(! z z z z [d'd''][d'd''] | [d'd''] z z z [d'd''][d'd''] | %2
 [d'd''][Q:1/8=144] z [d'd''][d'd''] z [d'd''] |[d'd''] z !fermata!z4 ||[Q:1/8=204] d d' d' c' | %5
 b b a g ^^f g | a d!8va)! d e d c | B B A G ^^F G | A D d!8va(! d' d' c' | b b a g ^^f g | %10
 a d!8va)! d e d c |!8va(! d x !>!d' d x !>!d'!8va)! | %12
[Q:1/8=180] z z!8va(! d/d'/ d''/d'/[Q:1/8=204]d''/d'/d''/c'/ |{/c'} b b a{/a} g ^^f g | %14
{^^fg} a d d!8va)!{/^f} e d c |{/c} B B A{/A} G ^^F G | A D d!8va(! d' d' c' | %17
{/c'} b b a{/a} g ^^f g |{^^fg} a d d e d c | d x !>!d' d x !>!d'!8va)! |[Q:1/8=168] x6 || %21
 z z[Q:1/8=192][I:staff +1] .B/[I:staff -1].[^^FA]/[I:staff +1].B/[I:staff -1].[^F=A]/[I:staff +1].B/[I:staff -1].[^EG]/[I:staff +1].B/[I:staff -1].[=E=G]/ | %22
 (c/4B/4A/4B/4).F/.f'/.B/.f'/ (d/4c/4^B/4c/4).F/.f'/.c/.f'/ | %23
 (e/4d/4^^c/4d/4).B/.f'/[I:staff +1] .d/[I:staff -1].[Bc]/[I:staff +1].d/[I:staff -1].[A^c]/[I:staff +1].d/[I:staff -1].[=A^B]/[I:staff +1].d/[I:staff -1].[G=B]/ | %24
 (^e/4d/4^^c/4d/4).A/.a'/.d/.a'/ (f/4e/4^^d/4e/4).A/.a'/.e/.a'/ | %25
 (g/4f/4^e/4f/4).d/.a'/[I:staff +1] .f/[I:staff -1].[^^ce]/[I:staff +1].f/[I:staff -1].[^c=e]/[I:staff +1].f/[I:staff -1].[^Bd]/[I:staff +1].f/[I:staff -1].[=B=d]/ | %26
 (g/4f/4^e/4f/4).c/.c''/.f/.c''/ (a/4g/4^^f/4g/4).c/.c''/.g/.c''/ | %27
!8va(! x c'/[a'c'']/ x x b/[d'b']/ x | x a/[c'a']/ x x g/[bg']/ x | %29
 f/[af']/!8va)! z z G!8va(! .g' .g' | .g' .f'' .e'' .d'' .c'' .d'' | %31
 .e'' .c''!8va)! z F!8va(! .f' .f' | .f' .e'' .d'' .c'' .b' .c'' | %33
 .d'' .b'!8va)! z .D/.d/.d'/.d/.d'/.^^c/ | .d'/.c/.d'/.c/.d'/.B/ e'/d'/c'/b/a/g/ | %35
 ^^f/a/b/a/ z!8va(! d/d'/d''/d'/d''/^^c'/ | d''/c'/d''/c'/d''/b/ .e''/.d''/.c''/.b'/.a'/.g'/ | %37
 [a^^f']/[d'a']/ x x .d''/.d'/ x x | .d''/.d'/ x x .d''/.d'/ x .d''/.d'/ | %39
 x .d''/.d'/ x .d''/.^^g/.d''/.a/.d''/.b/ | .d''/.^b/.d''/.c'/.d''/.^^c'/ d''/d'/d''/d'/d''/d'/ | %41
 d''/d'/d''/d'/d''/d'/ d''/d'/d/d'/d''/d'/ | d/d'/d''/d'/d/d'/ d''/d'/d/d'/d''/d'/ | %43
 d/d'/d''/d'/d/d'/ d''/d'/d/d'/d''/d'/ | d/d'/d''/d'/d/d'/ d''/d'/d/d'/d''/d'/ | %45
 d/d'/d''/d'/d/d'/ d''/d'/d/d'/d''/d'/ | d/d'/d''/d'/d/d'/ d''/d'/d/d'/d''/d'/ | %47
 d/d'/d''/d'/d/d'/ d''/d'/d/d'/d''/d'/ | d/d'/d''/d'/d/d'/ e/d'/d/d'/c/d'/ | %49
 d/d'/g/b/d'/d''/[Q:1/8=180] d/d'/^^f/a/d'/d''/!8va)! | %50
[Q:1/8=168] z z!8va(! (3d/d'/d'/[Q:1/8=192] (3d'/d'/d''/ (3d'/d'/d''/ (3c'/c'/c''/ | %51
 (3b/b/b'/ (3b/b/b'/ (3a/a/a'/ (3g/g/g'/ (3^^f/f/^^f'/ (3g/g/g'/ | %52
 (3a/a/a'/ (3d/d/d'/ (3d/d/d'/!8va)! (3e/e/e'/ (3d/d/d'/ (3c/c/c'/ | %53
 (3B/B/b/ (3B/B/b/ (3A/A/a/ (3G/G/g/ (3^^F/F/^^f/ (3G/G/g/ | %54
 (3A/A/a/ (3D/D/d/ (3d/d/d/!8va(! (3d'/d'/d''/ (3d'/d'/d''/ (3c'/c'/c''/ | %55
 (3b/b/b'/ (3b/b/b'/ (3a/a/a'/ (3g/g/g'/ (3^^f/f/^^f'/ (3g/g/g'/ | %56
 (3a/a/a'/ (3d/d/d'/ (3d/d/d'/ (3e/e/e'/ (3d/d/d'/ (3c/c/c'/ | %57
 (3d/d/d'/ (3e/e/d'/ (3^e/e/d'/ (3f/f/d'/ (3^^f/f/d'/ (3g/g/d'/ | %58
[Q:1/8=180] (3^^g/g/d'/ (3a/a/d'/ (3b/b/d'/[Q:1/8=156] (3^b/b/d'/ (3c'/c'/d'/ (3^^c'/c'/d'/ | %59
[Q:1/8=144] (3d'/d'/d''/ (3e'/e'/d''/ (3^e'/e'/d''/[Q:1/8=132] (3f'/f'/d''/ (3^^f'/f'/d''/ (3g'/g'/d''/!8va)! || %60
 z z[Q:1/8=192] B .B/.B/.B/.B/.B/.B/ | %61
 c/4B/4A/4B/4 F/4f/4f/4f/4 B/4b/4b/4b/4 c/4c'/4c'/4c'/4 f/4f'/4f'/4f'/4!8va(! (3c'/[f'c'']/[f'c'']/ | %62
 (3d'/[f'd'']/[f'd'']/ z!8va)! d .d/.d/.d/.d/.d/.d/ | %63
 ^e/4d/4^^c/4d/4 A/4a/4a/4a/4 d/4d'/4d'/4d'/4 e/4^e'/4e'/4e'/4 a/4a'/4a'/4a'/4!8va(! (3e'/[a'^e'']/[a'e'']/ | %64
 (3f'/[a'f'']/[a'f'']/ z!8va)! f .f/.f/.f/.f/.f/.f/ | %65
 g/4f/4^e/4f/4 c/4c'/4c'/4c'/4 f/4f'/4f'/4f'/4!8va(! g/4g'/4g'/4g'/4 (6:4:6c'/[g'c'']/[g'c'']/[g'c'']/[g'c'']/[g'c'']/ | %66
 c''/4d''/4c''/4d''/4c''/4d''/4c''/4d''/4c''/4d''/4c''/4d''/4 b'/4c''/4b'/4c''/4b'/4c''/4b'/4c''/4b'/4c''/4b'/4c''/4 | %67
 a'/4b'/4a'/4b'/4a'/4b'/4a'/4b'/4a'/4b'/4a'/4b'/4 g'/4a'/4g'/4a'/4g'/4a'/4g'/4a'/4g'/4^d'/4=e'/4^e'/4 | %68
 f'/4g'/4f'/4g'/4 f/4f'/4g'/4f'/4 ^^f/4^^f'/4g'/4f'/4 g/4g'/4=a'/4g'/4 Tg'2 | %69
 x f'' e'' d'' c'' d'' | (e'' c'') =g/4=g'/4=a'/4g'/4 f/4f'/4^g'/4f'/4 Tf'2 | %71
 x e'' d'' c'' b' c'' | %72
 (d'' b') ^^c/4^^c'/4d'/4c'/4 d/4d'/4e'/4d'/4e'/4d'/4e'/4d'/4e'/4d'/4e'/4d'/4 | %73
[Q:1/8=156] (31:24:31e'/4d'/4^^c'/4d'/4e'/4^e'/4f'/4^^f'/4g'/4=a'/4^a'/4b'/4^b'/4c''/4^^c''/4d''/4e''/4f''/4e''/4d''/4c''/4^c''/4b'/4=b'/4a'/4^^g'/4^g'/4f'/4^f'/4e'/4=e'/4 | %74
[Q:1/8=192] d'!8va)! A/4a/4b/4a/4 ^^c/4^^c'/4d'/4c'/4 d/4d'/4e'/4d'/4e'/4d'/4e'/4d'/4e'/4d'/4e'/4d'/4 | %75
[Q:1/8=156]!8va(! (31:24:31e'/4d'/4^^c'/4d'/4e'/4^e'/4f'/4^^f'/4g'/4=a'/4^a'/4b'/4^b'/4c''/4^^c''/4d''/4e''/4f''/4e''/4d''/4c''/4^c''/4b'/4=b'/4a'/4^^g'/4^g'/4f'/4^f'/4e'/4=e'/4 | %76
 (32:24:32d'/4e'/4d'/4^^c'/4d'/4e'/4^e'/4f'/4^^f'/4g'/4=a'/4^a'/4b'/4^b'/4c''/4^^c''/4d''/4e''/4f''/4e''/4d''/4c''/4^c''/4b'/4=b'/4a'/4^^g'/4^g'/4f'/4^f'/4e'/4=e'/4 | %77
 (17:12:17d'/4e'/4d'/4^^c'/4d'/4e'/4^e'/4f'/4^^f'/4g'/4=a'/4^a'/4b'/4^b'/4c''/4^^c''/4d''/4[Q:1/8=204] e''/4f''/4e''/4d''/4c''/4d''/4c''/4^c''/4b'/4c''/4b'/4=b'/4a'/4b'/4a'/4=a'/4g'/4a'/4g'/4f'/4^f'/4=g'/4f'/4e'/4 | %78
 e'/4=f'/4e'/4d'/4^^c'/4d'/4c'/4^c'/4^b/4c'/4b/4=b/4!8va)! a/4b/4a/4=a/4g/4a/4g/4^^f/4^f/4=g/4f/4^e/4=e/4=f/4e/4d/4^^c/4d/4c/4^c/4^B/4c/4B/4=B/4 | %79
 A/4B/4A/4=A/4G/4A/4G/4^^F/4^F/4=G/4F/4^E/4 =E/4^^C/4E/4D/4^E/4=E/4F/4^E/4^^F/4^F/4^G/4^^F/4A/4G/4^A/4^^G/4B/4=A/4^B/4=B/4c/4^B/4^^c/4^c/4 | %80
 d/4x/4e/4x/4^e/4x/4f/4x/4^^f/4x/4g/4 x/4 =a/4x/4^a/4x/4b/4x/4^b/4x/4c'/4x/4^^c'/4 x/4!8va(! d'/4x/4e'/4x/4^e'/4x/4f'/4x/4^^f'/4x/4g'/4 x/4 | %81
 =a'/4x/4^a'/4x/4b'/4x/4^b'/4x/4c''/4x/4^^c''/4 x/4 d''/4x/4e''/4x/4d''/4x/4e''/4x/4d''/4x/4e''/4 x/4 d''/4x/4e''/4x/4d''/4x/4e''/4x/4d''/4x/4e''/4 x/4 | %82
 !^!Td''3[Q:1/8=192] !^!Td''3 | %83
 !^!Td''3 d''/4e''/4d''/4e''/4d''/4e''/4d''/4e''/4d''/4e''/4d''/4e''/4 | %84
 d''/4e''/4d''/4e''/4d''/4e''/4d''/4e''/4d''/4e''/4d''/4e''/4d''/4e''/4d''/4e''/4d''/4e''/4d''/4e''/4d''/4e''/4d''/4e''/4 | %85
 d''/4e''/4d''/4e''/4d''/4e''/4d''/4e''/4d''/4e''/4d''/4e''/4d''/4e''/4d''/4e''/4d''/4e''/4d''/4e''/4d''/4e''/4d''/4e''/4 | %86
 d''/4e''/4d''/4e''/4d''/4e''/4d''/4e''/4d''/4e''/4d''/4e''/4d''/4e''/4d''/4e''/4d''/4e''/4d''/4e''/4d''/4e''/4d''/4e''/4 | %87
 d''/4e''/4d''/4e''/4d''/4e''/4d''/4e''/4d''/4e''/4d''/4e''/4d''/4e''/4d''/4e''/4d''/4e''/4d''/4e''/4d''/4e''/4d''/4e''/4 | %88
 d''/4e''/4d''/4d'/4d'/4e'/4d'/4d/4(3d'/e'/d'/ d''/4e''/4d''/4d'/4d'/4e'/4d'/4d/4(3d'/e'/d'/ | %89
 d''/4e''/4d''/4d'/4d'/4e'/4d'/4d/4(3d'/e'/d'/ d''/4e''/4d''/4d'/4d'/4e'/4d'/4d/4(3d'/e'/d'/ | %90
[Q:1/8=156] d''/4e''/4d''/4d'/4 z z d''/4e''/4d''/4d'/4 z z!8va)! | %91
[Q:1/8=96] z z[Q:1/8=192] D d!8va(! d' c' | b b a g ^^f g | a d d!8va)! e d c | B B A G ^^F G | %95
 A D!8va(! d' d' d' c' | ^b b =a g g f | e c d e d c | %98
[Q:1/8=120] (46:24:46d/4d'/4e/4^e/4f/4^^f/4g/4=a/4^a/4b/4^b/4c'/4^^c'/4d'/4e'/4^e'/4f'/4^^f'/4g'/4=a'/4^a'/4b'/4^b'/4c''/4^^c''/4d''/4f''/4=e''/4^c''/4^a'/4^^f'/4^^c'/4d'/4^f'/4=e'/4^c'/4a/4!8va)!f/4=e/4c/4A/4^^F/4^E/4C/4A,/4^^F,/4 | %99
[Q:1/8=96][I:staff +1] (6:4:6(G,,/4D,/4G,/4[I:staff -1]B,/4D/4G/4)[Q:1/8=72][I:staff +1] (6:4:6(B/4d/4g/4!8va(![I:staff -1]b/4d'/4[Q:1/8=60]b'/4) !fermata!g'!8va)! || %100
 z/[Q:1/8=228] .[Bb]/.[Bb]/.[Bb]/.[Bb]/.[Bb]/ | b/ x/ f/ x/ b/ x/ c'/ x/ f/ x/ c'/ x/ | %102
 d'/ x/ x x z/ .[dd']/.[dd']/.[dd']/.[dd']/.[dd']/ | d'/ x/ a/ x/ d'/ x/ ^e'/ x/ a/ x/ e'/ x/ | %104
 f'/ x/ x!8va(! x!8va)! z/ .[ff']/.[ff']/.[ff']/.[ff']/.[ff']/ | %105
 f'/ x/ c'/ x/ f'/ x/ g'/ x/ c'/ x/ g'/ x/ | %106
!8va(! [c'f'a']/[c'g'b']/[c'a'c'']/[c'a'c'']/[c'g'b']/[c'f'a']/ [bd'g']/[c'd'a']/[d'b']/[d'b']/[c'd'a']/[bd'g']/ | %107
 [ac'f']/[bc'g']/[c'a']/[c'a']/[bc'g']/[ac'f']/ [gc'^e']/[ac'f']/[bc'g']/[bc'g']/[fc'd']/[gc'e']/ | %108
 !wedge![fc'f']!8va)! z z x x x | %109
!8va(! .[gg'] [f'f'']/[f'f'']/[e'e'']/[e'e'']/ [d'd'']/[d'd'']/[c'c'']/[c'c'']/[d'd'']/[d'd'']/ | %110
 [e'e'']!8va)! z z x x x | %111
 .[ff']!8va(! [e'e'']/[e'e'']/[d'd'']/[d'd'']/ [c'c'']/[c'c'']/[bb']/[bb']/[c'c'']/[c'c'']/ | %112
 [d'd'']!8va)! z z x[K:bass] x x | %113
[K:treble] .[dd'] [dd']/[dd']/[dd']/[dd']/ [ee']/[dd']/[cc']/[Bb]/[^A^a]/[Gg]/ | %114
 [^^F^^f] z z x[K:bass] x x | %115
[K:treble] .[dd']!8va(! [d'd'']/[d'd'']/[d'd'']/[d'd'']/ [e'e'']/[d'd'']/[c'c'']/[bb']/[^a^a']/[gg']/!8va)! | %116
 [^^f^^f']/[^f^f']/[^e^e']/[=e=e']/[^^c^^c']/[dd']/ [ee']/[dd']/[^c^c']/[Bb]/[Aa]/[Gg]/ | %117
 [^^F^^f]/[^F^f]/[^E^e]/[=E=e]/[^^C^^c]/[Dd]/ [Ee]/[Dd]/[^C^c]/[B,B]/[A,A]/[G,G]/ | %118
 ^^F/^F/^E/=E/^^C/D/ E/D/^C/B,/A,/G,/ |[Q:1/8=300] z ^^C/x/D/x/^^G/x/A/x/[C^^c]/ x/ | %120
 [Dd]/[I:staff +1][D,D]/[I:staff -1][^^G^^g]/[I:staff +1][^^G,^^G]/[I:staff -1][Aa]/[I:staff +1][A,A]/[I:staff -1][^^c^^c']/[I:staff +1][^^C^^c]/[I:staff -1][dd']/[I:staff +1][Dd]/[I:staff -1][g^^g']/[I:staff +1][G^^g]/ | %121
!8va(![I:staff -1] [aa']/[I:staff +1][Aa]/[I:staff -1][^^c'^^c'']/[I:staff +1][^^cc']/[I:staff -1][d'd'']/[I:staff +1][dd']/[I:staff -1][c'c'']/[I:staff +1][cc']/[I:staff -1][d'd'']/[I:staff +1][dd']/[I:staff -1][c'c'']/[I:staff +1][cc']/ | %122
[I:staff -1] [d'd'']/[I:staff +1][^c^c']/[I:staff -1][^^c'^^c'']/[I:staff +1][Aa]/[I:staff -1][d'd'']/[I:staff +1][^^F^^f]/[I:staff -1][c'c'']/[I:staff +1][Dd]/[I:staff -1][d'd'']/[I:staff +1][Cc]/[I:staff -1][c'c'']/[I:staff +1][A,A]/ | %123
[I:staff -1] [d'd'']/[I:staff +1][^^F,^^F]/[I:staff -1][^^c'^^c'']/[I:staff +1][D,D]/[I:staff -1][d'd'']/[I:staff +1][C,C]/[I:staff -1][c'c'']/[I:staff +1][A,,A,]/[I:staff -1][d'd'']/[I:staff +1][^^F,,F,]/[I:staff -1][c'c'']/[I:staff +1][D,,D,]/ | %124
[Q:1/8=228][I:staff -1] !//![d'd'']6 | %125
 [d'd'']/[d'd'']/[d'd'']/[d'd'']/[d'd'']/[d'd'']/ [d'd'']/[d'd'']/[d'd'']/[d'd'']/[c'c'']/[c'c'']/ | %126
 [bb']/[bb']/[bb']/[bb']/[aa']/[aa']/ [gg']/[gg']/[^^f^^f']/[ff']/[gg']/[gg']/!8va)! | %127
 [aa']/[aa']/[dd']/[dd']/[dd']/[dd']/ [ee']/[ee']/[dd']/[dd']/[cc']/[cc']/ | %128
 [Bb]/[Bb]/[Bb]/[Bb]/[Aa]/[Aa]/ [Gg]/[Gg]/[^^F^^f]/[Ff]/[Gg]/[Gg]/ | %129
 [Aa]/[Aa]/[Dd]/[Dd]/[dd']/[dd']/!8va(! [d'd'']/[d'd'']/[d'd'']/[d'd'']/[c'c'']/[c'c'']/ | %130
 [^b^b']/[bb']/[bb']/[bb']/[=a=a']/[aa']/!8va)! [gg']/[gg']/[gg']/[gg']/[ff']/[ff']/ | %131
 [ee'] [E=Ac]/[EAc]/[EAd]/[EAd]/[EAe]/[EAe]/[EAd]/[EAd]/[EAc]/[EAc]/ | %132
 [DGBd]/[Ee]/[^E^e]/[Ff]/[^^F^^f]/[Gg]/[=A=a]/[^A^a]/[Bb]/[^B^b]/[cc']/[^^c^^c']/ | %133
!8va(! [d^^fad']/[ee']/[^e^e']/[^f^f']/[^^f^^f']/[gg']/[=a=a']/[^a^a']/[bb']/[c'c'']/[^^c'^^c'']/[d'd'']/!8va)! | %134
[Q:1/8=240] [B,DG] z [Bdb] [Ada]/[Bb]/[cc'][Bdb]/[Aa]/ | %135
 [Bdb]/[cc']/[dd'][Bc']/[Bb]/ [Ada]/[Bb]/[cc'][Bdb]/[Aa]/ | %136
 [Bdb]/[Aa]/[Gg]!8va(! [bd'b'] [ad'a']/[bb']/[c'c''][bd'b']/[aa']/ | %137
 [bd'b']/[c'c'']/[d'd''][bc'']/[bb']/ [ad'a']/[bb']/[c'c''][bd'b']/[aa']/ | %138
 [bd'b']/[aa']/[gg']!8va)! [DBd] [DAd]/[DBd]/[Dcd][DBd]/[DAd]/ | %139
 [DBd]/[DAd]/[DGd] !wedge![dgd'] [DAd]/[DBd]/[Dcd][DBd]/[DAd]/ | %140
 [DBd]/[DAd]/ [DGd] !>!!wedge![dgd'] [DBd]/[DAd]/ [DGd] !>!!wedge![gd'g'] | %141
 [DBd]/[DAd]/ [DGd]!8va(! !>!!wedge![bd'b']!8va)! [DBd]/[DAd]/ [DGd]!8va(! !>!!^![d'g'd'']- | %142
 [d'g'd'']!^![d'g'd'']!^![d'g'd''] !^![d'g'd'']!^![d'g'd'']!^![d'g'd''] | %143
 !^![d'g'd'']!8va)! z z !^![B,DG] z z | !^![gbd'g']6 |] %145
V:2
 z!ped! [Dd][Dd] [Dd] z z!ped-up! | z!ped! [Dd][Dd] [Dd] z z!ped-up! | %2
 z!ped! [Dd] z z!ped-up!!ped! [Dd] z | z z!ped-up! !fermata!z4 || z4 | %5
!ped! !arpeggio![G,Dd] z z!ped-up!!ped! !arpeggio![B,Gd] z z!ped-up! | %6
!ped! !arpeggio![DA^^f] z z!ped-up!!ped! [^^FA] z z!ped-up! | %7
!ped! G z z!ped-up!!ped! [B,^^C^E] z z!ped-up! |!ped! [D^^F] z z!ped-up! z z z | %9
!ped! !arpeggio![G,Dd] z z!ped-up!!ped! !arpeggio![B,Gd] z z!ped-up! | %10
!ped! !arpeggio![DA^^f] z z!ped-up!!ped! [^^FA] z z!ped-up! | %11
!ped! [GB] z z!ped-up!!ped! [D^^Fc] z z!ped-up! |!ped! G,/D/d/g/!ped-up! z z z z | %13
[K:bass]!ped! .G,,.[D,B,] z!ped-up!!ped! .B,,.[G,D] z!ped-up! | %14
!ped! .D,.[A,^^F] z!ped-up![K:treble] .[^^FA].[FA] z | .G.G z .[B,^^C^E].[B,CE] z | %16
[K:bass]!ped! [D,D] z z!ped-up! z z z |!ped! .G,,.[D,B,] z!ped-up!!ped! .B,,.[G,D] z!ped-up! | %18
!ped! .D,.[A,^^F] z!ped-up![K:treble] [CGA][DGA][EGA] | %19
!ped! [DGB] z z!ped-up![K:bass]!ped! [D,C^^F] z z!ped-up! | %20
!ped! G,,/B,/[I:staff -1]D/G/d/g/[I:staff +1][K:treble]b/d'/g'/ z/ z!ped-up! || z z x4 | %22
 z .[B,D].[F,DF] z .[A,E].[F,EF] | z .[B,D][K:treble] x4 | z .[DF].[A,FA] z .[^^CG].[A,GA] | %25
 z .[DF] x4 | z .[FA].[CAc] z .[^EB].[CBc] | %27
 .f/.g/!ped!!arpeggio!a.g/.f/!ped-up! .B/.c/!ped!!arpeggio!d.c/.B/!ped-up! | %28
 .A/.B/!ped!!arpeggio!c.B/.A/!ped-up! .G/.A/!ped!!arpeggio!c.A/.G/!ped-up! | %29
 .A .F/.f/.^^F/.^^f/ z!ped! .[EG].[DG]!ped-up! |!ped! .[CG] .d.c!ped-up!!ped! .^B.A.B!ped-up! | %31
!ped! .c.e!ped-up! .^^F/.^^f/ z!ped! .[D^F].[CF]!ped-up! | %32
!ped! .[B,F] .c.B!ped-up!!ped! .A.G.A!ped-up! |!ped! .B.d!ped-up! ^^C/^^c/ z .[^^F,D].[G,^E] | %34
 .[A,^^F].[A,F].[B,G] .[CA] z .[^^C^E] | .[D^^F] z ^^c/^^c'/ z .[Fd].[G^e] | %36
 .[A^^f].[Af].[Bg] .[c=a] z .[^^c^e] | .[d^^f] .^^c/.^^c'/.d/.d'/ x .d/.d'/.e/.e'/ | %38
 x .e/.e'/.^e/.^e'/ x .f/.f'/ x | .^^f/.^^f'/ x .g/.g'/ z z z | z6 | z6 | %42
 z z!ped! .D .d x .c!ped-up! |!ped! !arpeggio!.B.B.A!ped-up!!ped! !arpeggio!.G.^^F.G!ped-up! | %44
!ped! !arpeggio!.A.D.D!ped-up!!ped! !arpeggio!.E.D.C!ped-up! | %45
[K:bass]!ped! !arpeggio!.B,.B,.A,!ped-up!!ped! !arpeggio!.G,.^^F,.G,!ped-up! | %46
!ped! .A,.D, z[K:treble]!ped-up!!ped!{/D} d x c!ped-up! | %47
!ped! !arpeggio!.B.B.A!ped-up!!ped! !arpeggio!.G.^^F.G!ped-up! | %48
!ped! !arpeggio!.A.D z [CGA][DGA][EGA]!ped-up! |!ped! [DGB] z z!ped-up!!ped! [D^^Fc] z z | %50
!ped! G,/D/B/g/ z4!ped-up! |[K:bass]!ped! G,, [D,B,]!ped-up![D,B,]!ped-up!!ped! B,, [G,D][G,D] | %52
!ped! D, [A,^^F][A,F]!ped-up!!ped! ^^F, [DA][DA]!ped-up! | %53
!ped! G, [DG][DG]!ped-up!!ped! B, [^^C^E][CE]!ped-up! |!ped! D, [A,^^F] z z z z!ped-up! | %55
!ped! G,, [D,B,][D,B,]!ped-up!!ped! B,, [G,D][G,D] | %56
!ped! D,[K:treble] .[A,^^F].[FA].[GB].[^FA].[EG]!ped-up! |!ped! !arpeggio![DGB] z z z z z!ped-up! | %58
[K:bass]!ped! !arpeggio![D,C^^F] z z z z z!ped-up! |!ped! !arpeggio![G,,D,B,G] z z z z z!ped-up! || %60
[K:treble] z z G/=G/ .F/.^E/.=E/.D/.=D/.C/ |[K:bass] z [B,D][F,DF] z [A,E][F,A,F] | %62
 B,,[F,D][K:treble] B A/^^G/^G/^^F/^F/^E/ | z [DF][A,FA] z [^^CG][A,CA] | %64
[K:bass] D, [A,F][K:treble] d/^^c/ ^c/^B/=B/A/^^G/^G/ | z [FA][CAc] z [^EB][CEc] | %66
 F .[fa]/.[gb]/ .[ac'] B, .[Bg]/.[ca]/ .[db] | C .[Af]/.[Bg]/ .[ca] C .[G^e]/.[Af]/ .[Bg] | %68
 [Fca] z z z !arpeggio!!wedge![Eg]!arpeggio!!wedge![Df] | %69
 !arpeggio!!wedge![Ce] .d' .c' !arpeggio!!wedge!^b .a .b | %70
 c' .e' z z !arpeggio!!wedge![Df]!arpeggio!!wedge![Ce] | %71
 !arpeggio!!wedge![B,d] .c' .b !arpeggio!!wedge!a .g .a | b .d' z z [D^^Fd][^EG^^c] | %73
!ped! !arpeggio![^^FAc] z z!ped-up!!ped! !arpeggio![GBe] z z!ped-up! | %74
!ped! !arpeggio![D^^f] z z z!ped-up!!ped! .[D^^Fd].[^EG^^c]!ped-up! | %75
!ped! !arpeggio![^^FAc] z z!ped-up!!ped! !arpeggio![GBe] z z!ped-up! | %76
!ped! !arpeggio![DA^^f] z z!ped-up!!ped! !arpeggio![G,B] z z!ped-up! | %77
[K:bass]!ped! !arpeggio![D,^^F] z z!ped-up!!ped! !arpeggio![G,,B,] x x!ped-up! x x x | x4 x4 x | %79
 x x x!ped! !arpeggio![F,,A,C]!ped-up! x x x x x | x4 x4 x | x4 x4 x | z6 | %83
[K:treble] z z .d .d' x .c' |!ped! !arpeggio!.b .b .a!ped-up!!ped! !arpeggio!.g!ped-up! .^^f .g | %85
!ped! (!arpeggio!ad) .d!ped-up!!ped! !arpeggio!.e .d .c!ped-up! | %86
!ped! .[GB].[GB].[FA]!ped-up!!ped! !arpeggio!.G.^^F.G!ped-up! | %87
!ped! (!arpeggio!AD) z!ped-up!!ped!{/D} .d .d .c!ped-up! | %88
!ped! !arpeggio!.B .B .A!ped-up!!ped! !arpeggio!.G .^^F .G!ped-up! | %89
!ped! (!arpeggio!AD) .D!ped-up!!ped! .G.^F.E!ped-up! | %90
 !wedge!D .[Bg]/.[db]/!wedge![gd'] !wedge!D .[A^^f]/.[ca]/!wedge![fd'] | %91
!ped! (G,{DB}g/) z/ z x z z!ped-up! | %92
[K:bass]!ped! !wedge![G,,,G,,]!ped-up! !wedge![D,B,D]!wedge![G,B,D]!ped-up!!ped! !wedge![B,,,B,,] !wedge![D,B,D]!wedge![G,B,D] | %93
!ped! !wedge![D,,D,] !wedge![^^F,D^^F]!wedge![A,DF]!ped-up!!ped! !wedge!^^F,,[K:treble] !wedge![CDA]!wedge![A,DA]!ped-up! | %94
[K:bass]!ped! !wedge!G,, !wedge![DG]!wedge![B,D]!ped-up!!ped! !wedge!E,, !wedge![B,^^C]!wedge![A,C]!ped-up! | %95
!ped! !wedge!D,, !wedge![^^F,A,][K:treble]!wedge![^^FA] !wedge![^^fa] z z!ped-up! | %96
[K:bass]!ped! G,, [=A,DF][^B,DF]!ped-up!!ped! ^B,, [A,DF][B,DF] | %97
 C,[K:treble] [E=A][^B,A][CA][FA][EA] | %98
!ped! !arpeggio![DGB] z z[K:bass]!ped-up!!ped! !arpeggio![D,C^^F] z z!ped-up! | %99
!ped! x[K:treble] x x || x3!ped-up! z/ .G/.[=GA]/.[F=A]/.[^E^G]/.[=E=G]/ | %101
!ped! B,,/ x/ B,/ x/ B,,/ x/!ped-up!!ped! F,,/ x/ A,/ x/ F,,/ x/ | %102
!ped! B,,/ x/ x x z/[K:treble] .B/.[B^^c]/.[A^c]/.[=A^B]/!ped-up!.[G=B]/ | %103
[K:bass]!ped! D,/ x/ D/ x/!ped-up! D,/ x/!ped-up!!ped! A,,/ x/ ^^C/ x/ A,,/ x/ | %104
!ped! D,/ x/ x x z/[K:treble] .d/.[=d^e]/.[c=e]/.[^B^d]/!ped-up!.[=B=d]/ | %105
[K:bass]!ped! F,/ x/ F/ x/!ped-up! F,/ x/!ped-up!!ped! C,/ x/ ^E/ x/ C,/ x/ | %106
!ped! !wedge!F,[K:treble] .C/.A/.f/.a/[K:bass]!ped-up!!ped! !wedge!B,,[K:treble] .B,/.G/.d/!ped-up!.b/ | %107
!ped! !wedge!C,[K:treble] .A,/.F/.c/.f/!ped-up!!ped! C .^e/.G/.C/.B/!ped-up! | %108
!ped! !wedge![FA][K:bass] [F,,F,]/[F,,F,]/[^^F,,^^F,]/!ped-up![F,,F,]/!ped! [G,,G,]/[G,,G,]/[I:staff -1][G,G]/[G,G]/[I:staff +1][K:treble][Gg]/[Gg]/!ped-up! | %109
 z g/g/g/g/ g/g/g/g/g/g/ | %110
!ped! g[K:bass] [G,,G,]/!ped-up![G,,G,]/[G,,=G,]/!ped-up![G,,G,]/!ped! [F,,F,]/[F,,F,]/[I:staff -1][F,F]/[F,F]/[I:staff +1][K:treble][Ff]/[Ff]/ | %111
 z f/f/f/f/ f/f/f/f/f/f/ | %112
 f[K:bass] [^E,,^E,]/[E,,E,]/[=E,,=E,]/!ped-up![E,,E,]/!ped! [D,,D,]/[D,,D,]/[I:staff -1][D,D]/[D,D]/[I:staff +1][K:treble][Dd]/[Dd]/ | %113
 z [D^^F]/[DF]/[^EG]/[EG]/ [^F=A]/[FA]/[=E^^F]/[EF]/[^^C^E]/[CE]/ | %114
 D[K:bass] [A,,,A,,]/[A,,,A,,]/[^^C,,^^C,]/!ped-up![C,,C,]/!ped! [D,,D,]/[D,,D,]/[I:staff -1][D,D]/[D,D]/[I:staff +1][K:treble][Dd]/[Dd]/ | %115
 z [^^Fd]/[Fd]/[G^e]/[Ge]/ [=A^f]/[Af]/[^A^^f]/[Af]/[^^c^e]/[ce]/ | %116
 [Ad]/[Ad]/[GB]/[GB]/[F=A]/[FA]/ [^^F^A]/[FA]/[EF]/[EF]/[^^C^E]/[CE]/ | %117
[K:bass] [A,D]/[A,D]/[G,B,]/[G,B,]/[F,=A,]/[F,A,]/ [^^F,^A,]/[F,A,]/[E,F,]/[E,F,]/[^^C,^E,]/[C,E,]/ | %118
 ^^F,/ ^F,/ ^E,/ =E,/ ^^C,/ D,/ E,/ E,/ E,/ [E,B,]/ [^E,A,]/ [E,G,]/ | %119
 ^^F, x/ ^^C,/x/D,/x/^^G,/x/A,/ x/ x/ | x[K:treble] x x x x x | x6 |!ped! x x!ped-up! x x x x | %123
[K:bass] x6 | z6 | z z[K:treble]!ped-up!!ped! !wedge!D!wedge!d z z | %126
[K:bass]!ped! [G,,,G,,] [D,B,D]/[D,B,D]/[G,B,D]!ped-up!!ped! [B,,,B,,] [D,B,D]/[D,B,D]/[G,B,D]!ped-up! | %127
!ped! [D,,D,][K:treble] [^^F,D^^F]/[F,DF]/[A,DF][K:bass]!ped-up!!ped! [^^F,,F,][K:treble] [CDA]/[CDA]/[CDA]!ped-up! | %128
!ped! [G,,G,][K:treble] [B,DG]/[B,DG]/[B,D][K:bass]!ped-up!!ped! E,, [A,^^C]/[A,C]/[A,C]!ped-up! | %129
!ped! D,, [^^F,A,]/[F,A,]/[F,A,D][K:treble]!ped-up!!ped! [^^FAd] z z!ped-up! | %130
[K:bass]!ped! [G,,,G,,] [F,=A,D]/[F,A,D]/[F,A,D]!ped-up!!ped! [^B,,,^B,,][K:treble] [=A,D=A]/[A,DA]/[A,DA]!ped-up! | %131
[K:bass] [C,,C,] [E,=A,C]/[E,A,C]/[D,A,C]/[D,A,C]/[C,A,C]/[C,A,C]/[D,A,C]/[D,A,C]/[E,A,C]/[E,A,C]/ | %132
!ped! [D,G,B,]/[^^C,^^C]/[^C,^C]/[^B,,^B,]/[=B,,=B,]/[A,,A,]/[=A,,=A,]/[G,,G,]/[^^F,,^^F,]/[^F,,^F,]/[^E,,^E,]/[=E,,=E,]/!ped-up! | %133
!ped! [D,,^^F,,A,,D,]/[^^C,,^^C,]/[^C,,^C,]/[^B,,,^B,,]/[=B,,,=B,,]/[A,,,A,,]/[=A,,,=A,,]/[G,,,G,,]/[^^F,,,^^F,,]/[^F,,,^F,,]/[E,,,E,,]/[D,,,D,,]/!ped-up! | %134
!ped! [G,,,G,,][D,,D,]/[G,,G,]/[B,,D]!ped-up!!ped! [G,,,G,,][D,,D,]/[G,,G,]/[B,,D]!ped-up! | %135
!ped! [G,,,G,,][D,,D,]/[G,,G,]/[B,,D]!ped-up!!ped! [G,,,G,,][D,,D,]/[G,,G,]/[B,,D]!ped-up! | %136
!ped! [G,,,G,,][D,,D,]/[G,,G,]/[B,,D]!ped-up!!ped! [G,,,G,,][D,,D,]/[G,,G,]/[B,,D]!ped-up! | %137
!ped! [G,,,G,,][D,,D,]/[G,,G,]/[B,,D]!ped-up!!ped! [G,,,G,,][D,,D,]/[G,,G,]/[B,,D]!ped-up! | %138
!ped! [G,,,G,,][D,,D,]/[G,,G,]/!ped-up!!ped! [B,,D,D] [A,,D,A,]/[B,,D,B,]/[C,D,C][B,,D,B,]/[A,,D,A,]/!ped-up! | %139
 [B,,D,B,]/[A,,D,A,]/ [A,,D,G,] !wedge![G,,,D,,G,,] [A,,D,A,]/!ped-up!!ped![B,,D,B,]/[C,D,C][B,,D,B,]/[A,,D,A,]/ | %140
 [B,,D,B,]/[A,,D,A,]/ [A,,D,G,] !wedge![G,,,D,,G,,]!ped-up!!ped! [B,,D,B,]/[A,,D,A,]/ [A,,D,G,] !wedge![G,,,D,,G,,] | %141
!ped! [B,,D,B,]/[A,,D,A,]/ [A,,D,G,] !wedge![G,,,D,,G,,]!ped-up!!ped! [B,,D,B,]/[A,,D,A,]/ [A,,D,G,]!ped-up!!ped! !^![G,,,D,,G,,]-!ped-up! | %142
 [G,,,D,,G,,] !^![G,,D,G,]!^![G,DG][K:treble]!^![Gdg][K:bass]!^![G,DG]!^![G,,D,G,] | %143
 !^![G,,,D,,G,,] z z !^![G,,D,G,] z z |[K:treble]!ped! !^![B,DGB]6!ped-up! |] %145
V:3
!8va(! x6 | x6 | x6 | x6 || d/d'/d'/d''/d'/d''/ c'/d''/ | b/d''/b/d''/a/d''/ g/d''/^^f/d''/g/d''/ | %6
 a/d''/d/d''/!8va)!d/d'/ e/d'/d/d'/c/d'/ | B/d'/B/d'/A/d'/ G/d'/^^F/d'/G/d'/ | %8
 A/d'/ D/d/d/d'/!8va(! d'/d''/d'/d''/c'/d''/ | b/d''/b/d''/a/d''/ g/d''/^^f/d''/g/d''/ | %10
 a/d''/d/d''/!8va)!d/d'/ e/d'/d/d'/c/d'/ |!8va(! d/d'/ g/b/ d'/d''/ d/d'/ ^^f/a/ d'/d''/!8va)! | %12
 x2!8va(! x4 | b/d''/b/d''/a/d''/ g/d''/^^f/d''/g/d''/ | a/d''/d/d''/d/d'/!8va)! e/d'/d/d'/c/d'/ | %15
 B/d'/B/d'/A/d'/ G/d'/^^F/d'/G/d'/ | A/d'/ D/d/d/d'/!8va(! d'/d''/d'/d''/c'/d''/ | %17
 b/d''/b/d''/a/d''/ g/d''/^^f/d''/g/d''/ | a/d''/d/d''/d/d'/{/^f} e/d'/d/d'/c/d'/ | %19
 d/d'/ g/b/ d'/d''/ d/d'/ ^^f/a/ d'/d''/!8va)! | x6 || x6 | x6 | x6 | x6 | x6 | x6 | %27
!8va(! .a/.b/c'.b/.a/ .g/.a/b.a/.g/ | .f/.g/a.g/.f/ .^e/.f/g.d/.e/ | %29
 f!8va)! x2 G/g/!8va(!g'/g/g'/f/ | g'/e/f''/g/e''/g/ d''/g/c''/g/d''/g/ | %31
 e''/g/c''/g/!8va)! x F/f/!8va(!f'/f/f'/e/ | f'/d/e''/f/d''/f/ c''/f/b'/f/c''/f/ | %33
 d''/f/b'/f/!8va)! x4 | x3 e/a/c/e/B/^e/ | A/d/^^f/d/ x!8va(! x3 | x3 .e'/.a'/.c'/.e'/.b/.^e'/ | %37
 x6 | x6 | x6 | x6 | x6 | x4 d x | x6 | x6 | x6 | x4 d x | x6 | x x d e d c | d x d' d x d'!8va)! | %50
 x2!8va(! x4 | x6 | x3!8va)! x3 | x6 | x3!8va(! x3 | x6 | x6 | x6 | x6 | x6!8va)! || %60
 x2 B/A/ .=A/.G/.=G/.F/.^E/.=E/ | x F B c f!8va(! c' | d' b!8va)! d/^^c/ .^c/.^B/.=B/.A/.^^G/.^G/ | %63
 x A d ^e a!8va(! ^e' | f' d'!8va)! f/^e/ .=e/.d/.^^c/.^c/.^B/.=B/ | x c f!8va(! g c' z | %66
 .a'/.=a'/.g'/.^^f'/.^f' .g'/.^^f'/.^f'/.^e'/.d' | .f'/.^e'/.d'/.=d'/.c' .e'/.^d'/.=d'/.c'/.b | %68
 x f ^^f g x2 | %69
 g'/4=a'/4g'/4a'/4g'/4a'/4g'/4a'/4g'/4a'/4g'/4a'/4 g'/4a'/4g'/4a'/4g'/4a'/4g'/4a'/4g'/4a'/4g'/4a'/4 | %70
 g'/4=a'/4g'/4a'/4 g' =g f x2 | %71
 f'/4g'/4f'/4g'/4f'/4g'/4f'/4g'/4f'/4g'/4f'/4g'/4 f'/4g'/4f'/4g'/4f'/4g'/4f'/4g'/4f'/4g'/4f'/4g'/4 | %72
 f'/4g'/4f'/4g'/4 f' ^^c d x2 | x6 | x!8va)! A ^^c d x2 |!8va(! x6 | x6 | x9 | x3!8va)! x6 | x9 | %80
 x/4 ^^c/4x/4d/4x/4=e/4x/4^e/4x/4^f/4x/4^^f/4 x/4 g/4x/4^^g/4x/4a/4x/4=b/4x/4^b/4x/4^c'/4!8va(! x/4 ^^c'/4x/4d'/4x/4=e'/4x/4^e'/4x/4^f'/4x/4^^f'/4 | %81
 x/4 g'/4x/4^^g'/4x/4a'/4x/4=b'/4x/4^b'/4x/4^c''/4 x/4 ^^c''/4x/4c''/4x/4c''/4x/4c''/4x/4c''/4x/4c''/4 x/4 c''/4x/4c''/4x/4c''/4x/4c''/4x/4c''/4x/4c''/4 | %82
 x6 | x4 d'/ x/ d'/ x/ | d'/ x/ d'/ x/ d'/ x/ d'/ x/ d'/ x/ d'/ x/ | %85
 d'/ x/ d'/ x/ d'/ x/ d'/ x/ d'/ x/ d'/ x/ | d'/ x/ d'/ x/ d'/ x/ d'/ x/ d'/ x/ d'/ x/ | %87
 d'/ x/ d'/ x/ d'/ x/ d'/ x/ d'/ x/ d'/ x/ | x6 | x6 | x6!8va)! | %91
 x2 D/4d/4e/4d/4 d/4d'/4e'/4d'/4!8va(! d'/4d''/4e''/4d''/4 c'/4c''/4d''/4c''/4 | %92
 b/4b'/4c''/4b'/4 b/4b'/4c''/4b'/4 a/4a'/4b'/4a'/4 g/4g'/4a'/4g'/4 ^^f/4^^f'/4a'/4f'/4 g/4g'/4a'/4g'/4 | %93
 a/4a'/4b'/4a'/4 d/4d'/4e'/4d'/4 d/4d'/4e'/4d'/4!8va)! e/4e'/4f'/4e'/4 d/4d'/4e'/4d'/4 c/4c'/4d'/4c'/4 | %94
 B/4b/4c'/4b/4 B/4b/4c'/4b/4 A/4a/4b/4a/4 G/4g/4a/4g/4 ^^F/4^^f/4a/4f/4 G/4g/4a/4g/4 | %95
 A/4a/4b/4a/4 D/4d/4e/4d/4!8va(! d'/4d''/4e''/4d''/4 d'/4d''/4e''/4d''/4 d'/4d''/4e''/4d''/4 c'/4c''/4d''/4c''/4 | %96
 ^b/4^b'/4c''/4b'/4 b/4b'/4c''/4b'/4 =a/4=a'/4b'/4a'/4 g/4g'/4a'/4g'/4 g/4g'/4a'/4g'/4 f/4f'/4g'/4f'/4 | %97
 e/4e'/4f'/4e'/4 c/4c'/4d'/4c'/4 d/4d'/4e'/4d'/4 e/4e'/4f'/4e'/4 d/4d'/4f'/4d'/4 c/4c'/4d'/4c'/4 | %98
 x153/32!8va)! x39/32 | x3/2!8va(! x3/2!8va)! || x3 | b/F/B/F/b/F/ c'/F/c/F/c'/F/ | %102
 d'/.F/.d/.b/.d'/.b'/ x3 | d'/A/d/A/d'/A/ ^e'/A/^e/A/e'/A/ | %104
 f'/.A/.f/.d'/!8va(!.f'/.d''/!8va)! x3 | f'/c/f/c/f'/c/ g'/c/g/c/g'/c/ |!8va(! x6 | x6 | %108
 x!8va)! x5 |!8va(! x6 | x!8va)! x5 | x!8va(! x5 | x!8va)! x3[K:bass] x2 |[K:treble] x6 | %114
 x4[K:bass] x2 |[K:treble] x!8va(! x5!8va)! | x6 | x6 | x6 | x6 | x6 |!8va(! x6 | x6 | x6 | x6 | %125
 x6 | x6!8va)! | x6 | x6 | x3!8va(! x3 | x3!8va)! x3 | x6 | x6 |!8va(! x6!8va)! | x6 | x6 | %136
 x2!8va(! x4 | x6 | x2!8va)! x4 | x6 | x6 | x2!8va(! x!8va)! x2!8va(! x | x6 | x!8va)! x5 | x6 |] %145
V:4
 x6 | x6 | x6 | x6 || x4 | x6 | x6 | x6 | x6 | x6 | x6 | x6 | x6 |[K:bass] x6 | x3[K:treble] x3 | %15
 x6 |[K:bass] x6 | x6 | x3[K:treble] x3 | x3[K:bass] x3 | x3[K:treble] x3 || x6 | x6 | %23
 x2[K:treble] x4 | x6 | x6 | x6 | x !arpeggio!F x2 !arpeggio!B, x | %28
 x !arpeggio!C x2 !arpeggio!C x | F, x5 | x3 G, x2 | C x5 | x3 F, x2 | B, x5 | x6 | x6 | x6 | x6 | %38
 x6 | x6 | x6 | x6 | x6 | !arpeggio!G, x x !arpeggio!B, x x | %44
 !arpeggio!^^F x x !arpeggio!^^F, x x |[K:bass] !arpeggio!G, x x !arpeggio!E, x x | %46
 ^^F,2 x[K:treble] x3 | !arpeggio!G, x x !arpeggio!B, x x | !arpeggio!^^F x x x3 | x6 | x6 | %51
[K:bass] x6 | x6 | x6 | x6 | x6 | x[K:treble] x5 | x6 |[K:bass] x6 | x6 ||[K:treble] x6 | %61
[K:bass] x6 | x2[K:treble] x4 | x6 |[K:bass] x2[K:treble] x4 | x6 | x6 | x6 | x6 | %69
 x3 !arpeggio!G x x | c x x4 | x3 !arpeggio!F x x | B x x4 | x6 | x6 | x6 | x6 |[K:bass] x9 | x9 | %79
 x9 | x9 | x9 | x6 |[K:treble] x6 | !arpeggio!G x2 !arpeggio!B x2 | %85
 !arpeggio!^^f x2 !arpeggio![^^FA] x2 | x3 !arpeggio!E x2 | !arpeggio!^^F x5 | %88
 !arpeggio!G, x2 !arpeggio!B, x2 | !arpeggio!^^F x2 B,^B,C | x6 | x6 |[K:bass] x6 | %93
 x4[K:treble] x2 |[K:bass] x6 | x2[K:treble] x4 |[K:bass] x6 | x[K:treble] x5 | x3[K:bass] x3 | %99
 x[K:treble] x2 || x3 | B,,/D/F,/D/B,,/D/ F,,/E/F,/E/F,,/E/ | %102
 B,,/.B,/.F,/.B,,/.F,,/.B,,,/ x/[K:treble] x5/2 |[K:bass] D,/F/A,/F/D,/F/ A,,/G/A,/G/A,,/G/ | %104
 D,/.F/.A,/.D,/.A,,/.D,,/ x/[K:treble] x5/2 |[K:bass] F,/A/C/A/F,/A/ C,/B/C/B/C,/B/ | %106
 x[K:treble] x2[K:bass] x[K:treble] x2 | x[K:treble] x5 | x[K:bass] x4[K:treble] x | %109
 x .d .c .^B .A .B | c[K:bass] x4[K:treble] x | x .c .B .A .G .A | B[K:bass] x4[K:treble] x | x6 | %114
 x[K:bass] x4[K:treble] x | x6 | x6 |[K:bass] x6 | %118
 [A,,D,]/[A,,D,]/[G,,B,,]/[G,,B,,]/[F,,=A,,]/[F,,A,,]/ [^^F,,^A,,]/[F,,A,,]/[F,,A,,]/[F,,A,,]/[^^C,,B,,]/[C,,B,,]/ | %119
 [D,,A,,] ^^C,/x/D,/x/^^G,/x/A,/x/x/[C,^^C]/ | x[K:treble] x5 | x6 | x6 |[K:bass] x6 | x6 | %125
 x2[K:treble] x4 |[K:bass] x6 | x[K:treble] x2[K:bass] x[K:treble] x2 | x[K:treble] x2[K:bass] x3 | %129
 x3[K:treble] x3 |[K:bass] x4[K:treble] x2 |[K:bass] x6 | x6 | x6 | x6 | x6 | x6 | x6 | x6 | x6 | %140
 x6 | x6 | x3[K:treble] x[K:bass] x2 | x6 |[K:treble] x6 |] %145

